images/partners/partner-7.svg

<svg width="72" height="19" viewBox="0 0 72 19" fill="none" xmlns="http://www.w3.org/2000/svg">
<path d="M21.4084 5.84705H23.1503V12.8903H21.4084V5.84705ZM23.8413 10.2309C23.8413 8.48898 24.9097 7.44963 26.5587 7.44963C28.2077 7.44963 29.2761 8.48898 29.2761 10.2309C29.2761 11.9729 28.231 13.018 26.5587 13.018C24.8865 13.018 23.8413 12.0019 23.8413 10.2309ZM27.5284 10.2309C27.5284 9.27285 27.151 8.70963 26.5587 8.70963C25.9665 8.70963 25.5948 9.29027 25.5948 10.2309C25.5948 11.1716 25.9606 11.7406 26.5587 11.7406C27.1568 11.7406 27.5284 11.2064 27.5284 10.2367V10.2309ZM29.9323 13.2329H31.6045C31.6841 13.4097 31.8187 13.556 31.9881 13.6502C32.1576 13.7443 32.353 13.7813 32.5452 13.7554C33.2071 13.7554 33.5555 13.3954 33.5555 12.8729V11.8974H33.5206C33.3819 12.1963 33.1566 12.4468 32.8741 12.6166C32.5916 12.7863 32.2646 12.8675 31.9355 12.8496C30.6639 12.8496 29.8219 11.8799 29.8219 10.2135C29.8219 8.54705 30.6232 7.49608 31.9587 7.49608C32.2982 7.48278 32.6335 7.57354 32.92 7.75615C33.2064 7.93882 33.4302 8.20464 33.5613 8.51801V7.54834H35.3032V12.8322C35.3032 14.1038 34.1826 14.8935 32.5277 14.8935C30.989 14.8935 30.031 14.2025 29.9323 13.2387V13.2329ZM33.5613 10.2251C33.5613 9.37737 33.1723 8.84317 32.5568 8.84317C31.9413 8.84317 31.5639 9.37156 31.5639 10.2251C31.5639 11.0787 31.9355 11.5606 32.5568 11.5606C33.1781 11.5606 33.5613 11.0903 33.5613 10.2309V10.2251ZM35.9594 10.2251C35.9594 8.48317 37.0277 7.44382 38.6768 7.44382C40.3258 7.44382 41.4 8.48317 41.4 10.2251C41.4 11.967 40.3548 13.0122 38.6768 13.0122C36.9987 13.0122 35.9594 12.0019 35.9594 10.2309V10.2251ZM39.6465 10.2251C39.6465 9.26705 39.269 8.70382 38.6768 8.70382C38.0845 8.70382 37.7419 9.29027 37.7419 10.2367C37.7419 11.1832 38.1077 11.7464 38.7 11.7464C39.2923 11.7464 39.6465 11.2064 39.6465 10.2367V10.2251ZM42.0619 6.28253C42.0573 6.10665 42.1051 5.93339 42.1991 5.78469C42.2932 5.63599 42.4293 5.51856 42.5901 5.44728C42.7509 5.376 42.9293 5.35408 43.1026 5.3843C43.2759 5.41453 43.4364 5.49553 43.5636 5.61705C43.6909 5.73856 43.7791 5.89512 43.8173 6.06688C43.8554 6.23863 43.8417 6.41782 43.7779 6.58179C43.714 6.74571 43.603 6.88704 43.4587 6.98778C43.3146 7.08852 43.1436 7.14421 42.9677 7.14769C42.8511 7.1557 42.7341 7.1395 42.6241 7.10014C42.514 7.06077 42.4133 6.9991 42.3283 6.91892C42.2432 6.83879 42.1756 6.74188 42.1298 6.63434C42.0839 6.52687 42.0608 6.41103 42.0619 6.29414V6.28253ZM42.0619 7.55995H43.8039V12.8903H42.0619V7.55995ZM50.1271 10.2251C50.1271 11.967 49.3548 12.9599 48.031 12.9599C47.6915 12.9817 47.3535 12.8987 47.0627 12.7222C46.772 12.5457 46.5424 12.2841 46.4052 11.9729H46.3703V14.5974H44.6284V7.54834H46.3703V8.50059H46.4052C46.536 8.1842 46.7612 7.91583 47.05 7.73194C47.3388 7.54805 47.6773 7.45758 48.0194 7.47285C49.3548 7.49608 50.1503 8.49479 50.1503 10.2367L50.1271 10.2251ZM48.3852 10.2251C48.3852 9.37737 47.9961 8.83737 47.3865 8.83737C46.7768 8.83737 46.3877 9.38317 46.3819 10.2251C46.3761 11.067 46.7768 11.607 47.3865 11.607C47.9961 11.607 48.3852 11.0787 48.3852 10.2367V10.2251ZM53.1174 7.43801C54.5632 7.43801 55.44 8.12317 55.4806 9.22059H53.8955C53.8955 8.84317 53.5819 8.60511 53.1 8.60511C52.6181 8.60511 52.4032 8.79092 52.4032 9.06382C52.4032 9.33672 52.5948 9.42382 52.9839 9.50511L54.0987 9.73156C55.1613 9.95801 55.6142 10.3877 55.6142 11.1948C55.6142 12.298 54.6097 13.0064 53.129 13.0064C51.6484 13.0064 50.6787 12.298 50.6032 11.2122H52.2813C52.3335 11.607 52.6471 11.8393 53.1581 11.8393C53.669 11.8393 53.9013 11.6709 53.9013 11.3922C53.9013 11.1135 53.7387 11.0554 53.3206 10.9683L52.3161 10.7535C51.2768 10.5387 50.731 9.98705 50.731 9.17414C50.7426 8.12898 51.6774 7.44963 53.1174 7.44963V7.43801ZM61.4264 12.8787H59.7484V11.8858H59.7135C59.6212 12.2191 59.418 12.5109 59.137 12.7127C58.8559 12.9144 58.5145 13.0139 58.169 12.9948C57.9044 13.0098 57.6396 12.9679 57.3925 12.8718C57.1455 12.7757 56.9219 12.6278 56.737 12.4378C56.5521 12.248 56.41 12.0205 56.3205 11.771C56.231 11.5215 56.1961 11.2557 56.2181 10.9916V7.54834H57.96V10.5909C57.96 11.2238 58.2852 11.5606 58.8252 11.5606C58.9517 11.5608 59.0772 11.5341 59.1927 11.482C59.3077 11.4299 59.411 11.3537 59.4946 11.2586C59.5777 11.1634 59.6404 11.0515 59.677 10.9304C59.7135 10.8092 59.7246 10.6816 59.7077 10.5561V7.54834H61.4497L61.4264 12.8787ZM62.2684 7.54834H63.9523V8.57608H63.9871C64.0794 8.24714 64.2786 7.9581 64.5526 7.75429C64.8267 7.55048 65.1612 7.4433 65.5026 7.44963C65.8504 7.42181 66.1953 7.52581 66.4699 7.74099C66.744 7.95618 66.9275 8.26671 66.9832 8.61092H67.0181C67.1232 8.26305 67.3415 7.96019 67.6382 7.74994C67.9343 7.53968 68.2926 7.43401 68.6555 7.44963C68.8924 7.44167 69.1281 7.48365 69.3476 7.57284C69.5677 7.66197 69.7657 7.79639 69.93 7.96721C70.0943 8.1381 70.2209 8.34161 70.3016 8.56452C70.3817 8.78743 70.4148 9.02486 70.3974 9.26124V12.8903H68.6555V9.72576C68.6555 9.14511 68.3942 8.87801 67.9065 8.87801C67.7979 8.87708 67.6899 8.8995 67.5906 8.94374C67.4913 8.98799 67.4024 9.05302 67.3304 9.13448C67.2584 9.21595 67.2044 9.31187 67.1725 9.41586C67.1406 9.51992 67.1319 9.62954 67.1458 9.73737V12.8903H65.491V9.70253C65.491 9.16834 65.2297 8.87801 64.7535 8.87801C64.6438 8.87807 64.5346 8.90141 64.4348 8.94653C64.3343 8.9917 64.2443 9.05761 64.1717 9.13988C64.0986 9.22216 64.044 9.31901 64.0109 9.42405C63.9784 9.52903 63.9679 9.63976 63.9813 9.74898V12.8903H62.2394L62.2684 7.54834Z" fill="#D1D1D1"/>
<path d="M16.5368 6.16633C16.2413 5.49066 15.8502 4.861 15.3755 4.29665C14.6738 3.43749 13.798 2.73668 12.8059 2.24035C11.8138 1.74403 10.7279 1.46343 9.61953 1.41703C8.5112 1.37063 7.40559 1.55948 6.37547 1.97116C5.34539 2.38283 4.41415 3.00799 3.64307 3.8055C2.87198 4.603 2.27853 5.55476 1.90178 6.59815C1.52503 7.64151 1.37351 8.75287 1.45721 9.859C1.54091 10.9652 1.85791 12.0411 2.38736 13.0158C2.91682 13.9907 3.64672 14.8423 4.52902 15.5147C5.09515 15.9548 5.72071 16.3125 6.38708 16.5773C7.32134 16.9602 8.32127 17.1574 9.33095 17.1579C11.4151 17.1534 13.4124 16.3226 14.8851 14.8477C16.3577 13.3729 17.1856 11.3744 17.1871 9.2902C17.1886 8.21513 16.9672 7.15145 16.5368 6.16633ZM9.32515 3.01342C10.2319 3.01332 11.1276 3.2115 11.9497 3.59406C11.7492 3.68068 11.5384 3.74117 11.3226 3.77407C10.6122 3.87689 9.95416 4.20669 9.44662 4.71423C8.93907 5.22177 8.60927 5.87984 8.50644 6.5902C8.46132 6.98858 8.2801 7.3592 7.99344 7.63954C7.70677 7.91987 7.3322 8.09267 6.93289 8.12891C6.22253 8.23174 5.56446 8.56154 5.05693 9.06909C4.54939 9.57663 4.21959 10.2347 4.11676 10.945C4.08195 11.3238 3.92033 11.6798 3.65805 11.9554C3.20553 10.9992 3.00224 9.94406 3.06711 8.88822C3.13198 7.83237 3.4629 6.81009 4.02907 5.91647C4.59523 5.02291 5.37826 4.28707 6.30527 3.77746C7.23227 3.26784 8.27313 3.00102 9.33095 3.0018L9.32515 3.01342ZM4.52322 13.3547C4.59289 13.2908 4.66257 13.2328 4.73225 13.1631C5.24882 12.6623 5.5804 12.0012 5.67289 11.2876C5.71039 10.8865 5.88947 10.5119 6.17805 10.2308C6.45577 9.9418 6.82953 9.76418 7.22902 9.73149C7.93938 9.62865 8.59742 9.29885 9.10497 8.79131C9.61251 8.28376 9.94231 7.62572 10.0451 6.91536C10.0703 6.49584 10.2503 6.1006 10.5503 5.80633C10.8349 5.52288 11.2122 5.35174 11.6129 5.32438C12.2655 5.2346 12.8741 4.94448 13.3548 4.49407C13.9022 4.94817 14.3659 5.49446 14.7251 6.10826C14.7031 6.13805 14.6778 6.16534 14.6497 6.18955C14.3725 6.48115 13.9992 6.66266 13.5987 6.70052C12.8876 6.80155 12.2285 7.13078 11.7207 7.63861C11.2128 8.1465 10.8836 8.80553 10.7826 9.51665C10.7416 9.91636 10.5638 10.2897 10.2791 10.5732C9.99445 10.8569 9.62052 11.0334 9.22063 11.0728C8.50818 11.1748 7.84769 11.504 7.33719 12.0113C6.82675 12.5186 6.49351 13.1771 6.38708 13.8889C6.35584 14.1727 6.25835 14.4452 6.10257 14.6844C5.50682 14.3307 4.97327 13.8815 4.52322 13.3547ZM9.32515 15.596C8.73596 15.5966 8.14957 15.5145 7.58321 15.3521C7.77697 14.991 7.90291 14.5974 7.95482 14.1908C7.99553 13.792 8.17256 13.4194 8.45604 13.1359C8.73951 12.8525 9.11211 12.6754 9.51095 12.6347C10.2224 12.533 10.8817 12.2038 11.3904 11.6961C11.8991 11.1885 12.2298 10.5298 12.3329 9.81858C12.3736 9.41974 12.5506 9.04714 12.8341 8.76367C13.1176 8.4802 13.4902 8.30316 13.889 8.26245C14.4244 8.19284 14.9346 7.9935 15.3755 7.68181C15.6203 8.60962 15.6492 9.58116 15.4602 10.5219C15.2712 11.4627 14.8692 12.3477 14.2851 13.109C13.7009 13.8702 12.9502 14.4876 12.0904 14.9137C11.2306 15.3398 10.2847 15.5633 9.32515 15.567V15.596Z" fill="#D1D1D1"/>
</svg>

<svg xmlns="http://www.w3.org/2000/svg" width="72" height="19" fill="none" viewBox="0 0 72 19"><path fill="#d1d1d1" d="M21.408 5.847h1.742v7.043h-1.742zm2.433 4.384c0-1.742 1.069-2.781 2.718-2.781s2.717 1.039 2.717 2.78c0 1.743-1.045 2.788-2.717 2.788s-2.718-1.016-2.718-2.787m3.687 0c0-.958-.377-1.521-.97-1.521-.591 0-.963.58-.963 1.52 0 .942.366 1.51.964 1.51s.97-.534.97-1.503zm2.404 3.002h1.673a.9.9 0 0 0 .94.522c.662 0 1.01-.36 1.01-.882v-.976h-.034a1.65 1.65 0 0 1-1.585.953c-1.272 0-2.114-.97-2.114-2.636s.801-2.718 2.137-2.718a1.67 1.67 0 0 1 1.602 1.022v-.97h1.742v5.284c0 1.272-1.12 2.061-2.775 2.061-1.539 0-2.497-.69-2.596-1.654zm3.63-3.008c0-.848-.39-1.382-1.005-1.382-.616 0-.993.529-.993 1.382 0 .854.372 1.336.993 1.336s1.004-.47 1.004-1.33zm2.397 0c0-1.742 1.069-2.781 2.718-2.781s2.723 1.04 2.723 2.781-1.045 2.787-2.723 2.787-2.718-1.01-2.718-2.781zm3.688 0c0-.958-.378-1.521-.97-1.521-.593 0-.935.586-.935 1.533 0 .946.366 1.51.958 1.51s.947-.54.947-1.51zm2.415-3.942a.888.888 0 1 1 .906.865.85.85 0 0 1-.906-.854zm0 1.277h1.742v5.33h-1.742zm8.065 2.665c0 1.742-.772 2.735-2.096 2.735a1.66 1.66 0 0 1-1.626-.987h-.035v2.624h-1.742V7.548h1.742v.953h.035a1.67 1.67 0 0 1 1.614-1.028c1.336.023 2.131 1.022 2.131 2.764zm-1.742 0c0-.848-.389-1.388-.998-1.388-.61 0-1 .546-1.005 1.388-.006.842.395 1.382 1.005 1.382s.998-.528.998-1.37zm4.732-2.787c1.446 0 2.323.685 2.364 1.783h-1.586c0-.378-.313-.616-.795-.616s-.697.186-.697.459.192.36.58.441l1.116.227c1.062.226 1.515.656 1.515 1.463 0 1.103-1.004 1.811-2.485 1.811s-2.45-.708-2.526-1.794h1.678c.053.395.366.627.877.627s.743-.168.743-.447c0-.278-.162-.337-.58-.424l-1.005-.214c-1.04-.215-1.585-.767-1.585-1.58.012-1.045.946-1.724 2.386-1.724zm8.31 5.44h-1.679v-.992h-.034a1.516 1.516 0 0 1-1.545 1.109 1.853 1.853 0 0 1-1.95-2.003V7.548h1.741v3.043c0 .633.325.97.865.97a.89.89 0 0 0 .852-.63.9.9 0 0 0 .03-.375V7.548h1.743zm.841-5.33h1.684v1.028h.035a1.545 1.545 0 0 1 1.516-1.126 1.39 1.39 0 0 1 1.48 1.16h.035a1.635 1.635 0 0 1 1.638-1.16 1.69 1.69 0 0 1 1.741 1.811v3.63h-1.742V9.725c0-.58-.26-.848-.749-.848a.76.76 0 0 0-.76.86v3.152H65.49V9.703c0-.535-.261-.825-.737-.825a.776.776 0 0 0-.773.871v3.141H62.24zM16.537 6.166a7.7 7.7 0 0 0-1.161-1.87A7.856 7.856 0 1 0 4.529 15.516a7.6 7.6 0 0 0 1.858 1.062c.934.383 1.934.58 2.944.58a7.873 7.873 0 0 0 7.856-7.867 7.8 7.8 0 0 0-.65-3.124M9.325 3.013c.907 0 1.803.199 2.625.581a2.6 2.6 0 0 1-.627.18A3.33 3.33 0 0 0 8.506 6.59 1.74 1.74 0 0 1 6.933 8.13a3.33 3.33 0 0 0-2.816 2.816 1.7 1.7 0 0 1-.459 1.01 6.27 6.27 0 0 1 5.673-8.953zM4.523 13.355c.07-.064.14-.122.21-.192.516-.5.847-1.162.94-1.875.037-.402.216-.776.505-1.057a1.64 1.64 0 0 1 1.051-.5 3.33 3.33 0 0 0 2.816-2.816c.025-.42.205-.814.505-1.109a1.67 1.67 0 0 1 1.063-.482 3.2 3.2 0 0 0 1.742-.83 6.1 6.1 0 0 1 1.37 1.614.5.5 0 0 1-.075.082c-.277.291-.65.473-1.051.51a3.315 3.315 0 0 0-2.816 2.817 1.74 1.74 0 0 1-1.562 1.556 3.345 3.345 0 0 0-2.834 2.816 1.8 1.8 0 0 1-.284.795 6.3 6.3 0 0 1-1.58-1.33m4.802 2.241c-.589 0-1.175-.082-1.742-.244.194-.361.32-.755.372-1.161a1.74 1.74 0 0 1 1.556-1.556 3.33 3.33 0 0 0 2.822-2.816 1.74 1.74 0 0 1 1.556-1.557 3.3 3.3 0 0 0 1.487-.58 6.282 6.282 0 0 1-6.05 7.885z"/></svg>
